X:1
T:Hail, Hail, Hail
T:George J. Kurzenknabe
T:Hail, Hail, Hail
T:Public Domain
T:Public Domain
C:George J. Kurzenknabe
Z:Public Domain
%%score ( 1 2 ) ( 3 4 )
L:1/8
M:2/4
K:E
V:1 treble 
V:2 treble 
V:3 bass 
V:4 bass 
V:1
 [B,E]2 [EG]2 | [GB]3 [Ge] | [Fd][Ac] [GB][FA] | (G2 B) z | [Ec]2 [Gd]2 | [Ge]3 [Ge] | %6
w: 1.~Hail, hail,|hail the|bless- èd Christ- mas|morn; *|hail, hail,|the Prince|
w: 2.~Hail, hail,|hail, to|Christ our In- fant|King; *|hail, hail,|the choirs|
w: 3.~Joy, joy,|joy, our|hearts are glad to-|day; *|joy, joy,|let sor-|
 [Fe][Fc] [FB][E^A] | [DB]3 [FA] | [EG][EA] [EB][Ec] | [EB]2 [EG]E | E[EF] [EG][EA] | (G2 B)[EB] | %12
w: of Peace is born;|The Lord|of life and pow-|er, Of wis-|love and grace, Has|to * heal|
w: ce- les- tial sing;|The heav’n-|ly host re- joic-|es Through- out|star- ry sky, While|our * hap-|
w: row flee a- way;|For Christ,|our Light was giv-|en To ban-|all our woe, And|came * down|
 [Ec][Ad] [Ge]E | [EA]2 [Ec][EF] | [EB][CE] [DF][DG] | E3 z ||"^Refrain" ([GB][EG]) ([GB][EG]) | %17
w: peo- ple, To save|fall- en race.||||
w: voic- es Sing praise|God on high.|Hail, hail, hail, let|an-|pros- * trate *|
w: Heav- en, His love|us to show.||||
 [Ge]3 [Ec] | [EB][EG] [DF][FA] | (G2 B) z | (cA) (dB) | [Ge]3 [Ec] | [EB][EG] [DF][DG] | E3 z |] %24
w: |||||||
w: fall; Hail,|hail, hail, and crown|Him *|of * all. *||||
w: |||||||
V:2
 x4 | x4 | x4 | E3 x | x4 | x4 | x4 | x4 | x4 | x3 E | E x3 | E3 x | x3 E | x4 | x4 | E3 x || x4 | %17
w: |||Hail,||||||dom,|come|His|the|||||
w: |||Hail,||||||the|all|py|to|||gels||
w: |||Joy,||||||ish|He|from|for|||||
 x4 | x4 | E3 x | E2 A2 | x4 | x4 | E3 x |] %24
w: |||||||
w: ||Lord|||||
w: |||||||
V:3
 [E,G,]2 [E,B,]2 | [E,E]3 [E,B,] | [B,,B,][B,,B,] [B,,B,][B,,B,] | (B,2 G,) z | [C,G,]2 [G,^B,]2 | %5
 C3 [C,C] | [F,C][F,E] [F,D][F,C] | [B,,B,]3 [B,,B,] | E,[E,F,] [E,G,][E,A,] | %9
 [E,G,]2 [E,B,][E,G,] | [E,G,][E,A,] [E,B,][E,C] | (B,2 G,)[E,G,] | A,[F,B,] [E,B,][E,G,] | %13
 [C,A,]2 [A,,A,][A,,C] | [G,,B,][C,G,] [B,,A,][B,,B,] | [E,G,]3 z || [E,B,]2 [E,B,]2 | %17
 [E,B,]3 [A,,A,] | [B,,G,][B,,B,] [B,,B,][B,,B,] | (B,2 G,) z | A,2 [F,B,]2 | [E,B,]3 [A,,A,] | %22
 [B,,G,][B,,B,] [B,,A,][B,,B,] | [E,G,]3 z |] %24
V:4
 x4 | x4 | x4 | E,3 x | x4 | C3 x | x4 | x4 | E, x3 | x4 | x4 | E,3 x | A, x3 | x4 | x4 | x4 || %16
 x4 | x4 | x4 | E,3 x | A,2 x2 | x4 | x4 | x4 |] %24

